; generated by PrusaSlicer 2.1.1+win64 on 2020-04-20 at 08:07:52 UTC

; 

; external perimeters extrusion width = 0.45mm
; perimeters extrusion width = 0.45mm
; infill extrusion width = 0.45mm
; solid infill extrusion width = 0.45mm
; top infill extrusion width = 0.40mm
; first layer extrusion width = 0.70mm

M107
M104 S200 ; set temperature
G28 ; home all axes
G1 Z5 F5000 ; lift nozzle
M109 S200 ; set temperature and wait for it to be reached
G21 ; set units to millimeters
G90 ; use absolute coordinates
M82 ; use absolute distances for extrusion
G92 E0
; Filament gcode
G1 Z0.350 F7800.000
G1 E-2.00000 F2400.00000
G92 E0
G1 X20.955 Y34.339 F7800.000
G1 E2.00000 F2400.00000
G1 F1800
G1 X22.217 Y33.777 E2.12561
G1 X23.565 Y33.504 E2.25066
G1 X148.292 Y24.478 E13.62172
G1 X150.022 Y24.577 E13.77928
G1 X151.222 Y24.758 E13.88965
G1 X152.559 Y25.079 E14.01462
G1 X154.211 Y25.654 E14.17376
G1 X156.472 Y26.775 E14.40321
G1 X157.980 Y27.760 E14.56693
G1 X160.049 Y29.462 E14.81062
G1 X161.250 Y30.665 E14.96518
G1 X163.043 Y32.799 E15.21864
G1 X164.723 Y35.251 E15.48886
G1 X165.645 Y36.820 E15.65432
G1 X167.043 Y39.589 E15.93643
G1 X168.303 Y42.614 E16.23435
G1 X169.385 Y45.790 E16.53947
G1 X169.920 Y47.641 E16.71467
G1 X170.732 Y51.014 E17.03012
G1 X171.392 Y54.607 E17.36234
G1 X171.862 Y58.225 E17.69405
G1 X172.151 Y61.869 E18.02646
G1 X177.085 Y141.499 E25.28101
G1 X177.160 Y144.085 E25.51626
G1 X177.071 Y146.672 E25.75163
G1 X176.859 Y148.977 E25.96218
G1 X176.514 Y151.261 E26.17217
G1 X175.964 Y153.866 E26.41431
G1 X175.287 Y156.294 E26.64348
G1 X174.409 Y158.815 E26.88618
G1 X173.520 Y160.953 E27.09673
G1 X172.514 Y163.025 E27.30616
G1 X171.211 Y165.354 E27.54886
G1 X169.839 Y167.476 E27.77860
G1 X168.367 Y169.475 E28.00439
G1 X166.778 Y171.383 E28.23018
G1 X165.068 Y173.201 E28.45709
G1 X163.370 Y174.803 E28.66934
G1 X161.349 Y176.498 E28.90922
G1 X159.471 Y177.885 E29.12147
G1 X157.063 Y179.442 E29.38221
G1 X155.034 Y180.583 E29.59389
G1 X152.790 Y181.675 E29.82081
G1 X150.496 Y182.624 E30.04660
G1 X148.137 Y183.438 E30.27351
G1 X145.733 Y184.108 E30.50043
G1 X143.305 Y184.630 E30.72622
G1 X140.838 Y185.006 E30.95313
G1 X138.501 Y185.221 E31.16651
G1 X135.865 Y185.308 E31.40639
G1 X133.358 Y185.233 E31.63444
G1 X44.693 Y179.660 E39.71262
G1 X43.857 Y179.546 E39.78933
G1 X43.038 Y179.319 E39.86659
G1 X42.257 Y178.985 E39.94386
G1 X41.533 Y178.552 E40.02056
G1 X40.627 Y177.790 E40.12820
G1 X39.876 Y176.867 E40.23641
G1 X39.311 Y175.819 E40.34462
G1 X38.954 Y174.684 E40.45282
G1 X17.903 Y68.358 E50.30867
G1 X17.825 Y67.388 E50.39719
G1 X17.829 Y39.586 E52.92524
G1 X17.923 Y38.685 E53.00757
G1 X18.145 Y37.807 E53.08990
G1 X18.488 Y36.976 E53.17167
G1 X18.948 Y36.196 E53.25400
G1 X19.850 Y35.158 E53.37905
G1 X20.907 Y34.375 E53.49865
G1 E51.49865 F2400.00000
G92 E0
G1 X126.033 Y163.137 F7800.000
G1 E2.00000 F2400.00000
G1 F1800
G1 X127.697 Y163.889 E2.16605
G1 X129.092 Y164.406 E2.30129
G1 X130.556 Y164.834 E2.44001
G1 X132.089 Y165.163 E2.58257
G1 X133.561 Y165.373 E2.71781
G1 X135.083 Y165.481 E2.85653
G1 X136.651 Y165.479 E2.99909
G1 X138.134 Y165.373 E3.13433
G1 X139.646 Y165.157 E3.27317
G1 X141.138 Y164.834 E3.41202
G1 X142.604 Y164.406 E3.55086
G1 X144.037 Y163.874 E3.68988
G1 X145.679 Y163.134 E3.85368
G1 X146.661 Y162.960 E3.94430
G1 X147.625 Y162.971 E4.03194
G1 X148.569 Y163.161 E4.11959
G1 X149.462 Y163.524 E4.20723
G1 X150.272 Y164.046 E4.29487
G1 X150.971 Y164.711 E4.38251
G1 X151.533 Y165.493 E4.47016
G1 X151.941 Y166.367 E4.55780
G1 X152.178 Y167.301 E4.64544
G1 X152.238 Y168.263 E4.73309
G1 X152.117 Y169.219 E4.82073
G1 X151.821 Y170.136 E4.90837
G1 X151.359 Y170.982 E4.99602
G1 X150.748 Y171.728 E5.08366
G1 X149.955 Y172.391 E5.17767
G1 X147.920 Y173.308 E5.38061
G1 X145.987 Y174.031 E5.56827
G1 X144.011 Y174.627 E5.75593
G1 X142.001 Y175.094 E5.94359
G1 X139.964 Y175.428 E6.13125
G1 X137.911 Y175.629 E6.31891
G1 X135.848 Y175.697 E6.50657
G1 X133.785 Y175.629 E6.69423
G1 X131.731 Y175.428 E6.88189
G1 X129.695 Y175.094 E7.06955
G1 X127.684 Y174.627 E7.25721
G1 X125.708 Y174.031 E7.44487
G1 X123.776 Y173.308 E7.63253
G1 X121.741 Y172.391 E7.83548
G1 X120.948 Y171.728 E7.92949
G1 X120.337 Y170.982 E8.01713
G1 X119.875 Y170.136 E8.10477
G1 X119.578 Y169.219 E8.19242
G1 X119.457 Y168.259 E8.28039
G1 X119.522 Y167.281 E8.36952
G1 X119.755 Y166.367 E8.45532
G1 X120.162 Y165.493 E8.54296
G1 X120.725 Y164.711 E8.63060
G1 X121.423 Y164.046 E8.71825
G1 X122.233 Y163.524 E8.80589
G1 X123.126 Y163.161 E8.89353
G1 X124.071 Y162.971 E8.98118
G1 X125.035 Y162.960 E9.06882
G1 X125.974 Y163.126 E9.15555
G1 X125.847 Y163.738 F7800.000
G1 F1800
G1 X127.460 Y164.467 E9.31647
G1 X128.895 Y165.000 E9.45569
G1 X130.403 Y165.440 E9.59850
G1 X131.979 Y165.778 E9.74510
G1 X133.495 Y165.995 E9.88433
G1 X135.061 Y166.106 E10.02713
G1 X136.674 Y166.104 E10.17373
G1 X138.201 Y165.995 E10.31296
G1 X139.756 Y165.772 E10.45584
G1 X141.292 Y165.440 E10.59872
G1 X142.800 Y165.000 E10.74160
G1 X144.275 Y164.453 E10.88459
G1 X145.865 Y163.735 E11.04325
G1 X146.712 Y163.585 E11.12145
G1 X147.559 Y163.595 E11.19843
G1 X148.389 Y163.762 E11.27541
G1 X149.173 Y164.081 E11.35238
G1 X149.884 Y164.540 E11.42936
G1 X150.498 Y165.123 E11.50634
G1 X150.992 Y165.810 E11.58331
G1 X151.349 Y166.578 E11.66029
G1 X151.558 Y167.398 E11.73727
G1 X151.610 Y168.243 E11.81424
G1 X151.505 Y169.083 E11.89122
G1 X151.244 Y169.888 E11.96820
G1 X150.839 Y170.631 E12.04517
G1 X150.302 Y171.286 E12.12215
G1 X149.620 Y171.857 E12.20301
G1 X147.682 Y172.730 E12.39628
G1 X145.787 Y173.439 E12.58024
G1 X143.850 Y174.023 E12.76419
G1 X141.880 Y174.480 E12.94815
G1 X139.883 Y174.808 E13.13211
G1 X137.870 Y175.005 E13.31607
G1 X135.848 Y175.071 E13.50003
G1 X133.826 Y175.005 E13.68399
G1 X131.812 Y174.808 E13.86795
G1 X129.816 Y174.480 E14.05191
G1 X127.845 Y174.023 E14.23587
G1 X125.908 Y173.439 E14.41983
G1 X124.014 Y172.730 E14.60379
G1 X122.076 Y171.857 E14.79706
G1 X121.394 Y171.286 E14.87791
G1 X120.857 Y170.631 E14.95489
G1 X120.451 Y169.888 E15.03187
G1 X120.191 Y169.083 E15.10884
G1 X120.085 Y168.241 E15.18602
G1 X120.142 Y167.380 E15.26448
G1 X120.346 Y166.578 E15.33975
G1 X120.704 Y165.810 E15.41672
G1 X121.198 Y165.123 E15.49370
G1 X121.811 Y164.540 E15.57068
G1 X122.523 Y164.081 E15.64765
G1 X123.307 Y163.762 E15.72463
G1 X124.137 Y163.595 E15.80161
G1 X124.983 Y163.585 E15.87858
G1 X125.788 Y163.728 E15.95287
G1 X125.661 Y164.340 F7800.000
G1 F1800
G1 X127.222 Y165.045 E16.10865
G1 X128.699 Y165.593 E16.25187
G1 X130.249 Y166.046 E16.39876
G1 X131.869 Y166.394 E16.54940
G1 X133.428 Y166.617 E16.69262
G1 X135.040 Y166.731 E16.83951
G1 X136.696 Y166.728 E16.99015
G1 X138.267 Y166.617 E17.13336
G1 X139.867 Y166.388 E17.28028
G1 X141.446 Y166.046 E17.42720
G1 X142.997 Y165.593 E17.57412
G1 X144.512 Y165.031 E17.72108
G1 X146.051 Y164.337 E17.87460
G1 X146.764 Y164.211 E17.94038
G1 X147.493 Y164.219 E18.00669
G1 X148.208 Y164.363 E18.07300
G1 X148.883 Y164.637 E18.13931
G1 X149.496 Y165.033 E18.20562
G1 X150.025 Y165.535 E18.27193
G1 X150.450 Y166.128 E18.33824
G1 X150.758 Y166.788 E18.40455
G1 X150.938 Y167.495 E18.47086
G1 X150.983 Y168.223 E18.53717
G1 X150.892 Y168.947 E18.60348
G1 X150.668 Y169.641 E18.66979
G1 X150.318 Y170.281 E18.73610
G1 X149.856 Y170.845 E18.80241
G1 X149.285 Y171.322 E18.87011
G1 X147.444 Y172.152 E19.05372
G1 X145.587 Y172.847 E19.23397
G1 X143.689 Y173.419 E19.41423
G1 X141.758 Y173.867 E19.59449
G1 X139.802 Y174.188 E19.77475
G1 X137.829 Y174.382 E19.95501
G1 X135.848 Y174.446 E20.13526
G1 X133.866 Y174.382 E20.31552
G1 X131.894 Y174.188 E20.49578
G1 X129.937 Y173.867 E20.67604
G1 X128.006 Y173.419 E20.85629
G1 X126.108 Y172.847 E21.03655
G1 X124.252 Y172.152 E21.21681
G1 X122.411 Y171.322 E21.40041
G1 X121.840 Y170.845 E21.46811
G1 X121.377 Y170.281 E21.53443
G1 X121.028 Y169.641 E21.60073
G1 X120.804 Y168.947 E21.66704
G1 X120.712 Y168.222 E21.73343
G1 X120.762 Y167.478 E21.80122
G1 X120.937 Y166.788 E21.86595
G1 X121.245 Y166.128 E21.93226
G1 X121.671 Y165.535 E21.99857
G1 X122.200 Y165.033 E22.06488
G1 X122.812 Y164.637 E22.13119
G1 X123.488 Y164.363 E22.19750
G1 X124.203 Y164.219 E22.26381
G1 X124.932 Y164.211 E22.33012
G1 X125.602 Y164.329 E22.39197
G1 X125.957 Y164.071 F7800.000
G1 E20.39197 F2400.00000
G92 E0
G1 X133.508 Y148.535 F7800.000
G1 E2.00000 F2400.00000
G1 F1800
G1 X132.691 Y148.010 E2.08829
G1 X131.988 Y147.340 E2.17657
G1 X131.425 Y146.549 E2.26485
G1 X131.022 Y145.666 E2.35314
G1 X130.793 Y144.723 E2.44142
G1 X130.747 Y143.753 E2.52971
G1 X130.885 Y142.792 E2.61799
G1 X131.202 Y141.874 E2.70628
G1 X131.688 Y141.034 E2.79456
G1 X132.324 Y140.300 E2.88285
G1 X133.087 Y139.700 E2.97113
G1 X133.950 Y139.255 E3.05942
G1 X134.881 Y138.981 E3.14770
G1 X135.828 Y138.891 E3.23413
G1 X136.811 Y138.980 E3.32391
G1 X137.746 Y139.255 E3.41253
G1 X138.609 Y139.700 E3.50081
G1 X139.372 Y140.300 E3.58910
G1 X140.008 Y141.034 E3.67738
G1 X140.493 Y141.874 E3.76567
G1 X140.811 Y142.792 E3.85395
G1 X140.949 Y143.753 E3.94224
G1 X140.903 Y144.723 E4.03052
G1 X140.674 Y145.666 E4.11881
G1 X140.271 Y146.549 E4.20709
G1 X139.707 Y147.340 E4.29537
G1 X139.005 Y148.010 E4.38366
G1 X138.188 Y148.535 E4.47195
G1 X137.287 Y148.896 E4.56023
G1 X136.333 Y149.080 E4.64851
G1 X135.362 Y149.080 E4.73680
G1 X134.409 Y148.896 E4.82508
G1 X133.563 Y148.558 E4.90791
G1 X133.795 Y147.977 F7800.000
G1 F1800
G1 X133.079 Y147.517 E4.98535
G1 X132.463 Y146.929 E5.06278
G1 X131.969 Y146.236 E5.14021
G1 X131.615 Y145.461 E5.21765
G1 X131.414 Y144.633 E5.29508
G1 X131.374 Y143.783 E5.37251
G1 X131.495 Y142.940 E5.44994
G1 X131.773 Y142.135 E5.52738
G1 X132.199 Y141.398 E5.60481
G1 X132.757 Y140.754 E5.68224
G1 X133.426 Y140.228 E5.75968
G1 X134.183 Y139.837 E5.83711
G1 X135.000 Y139.598 E5.91454
G1 X135.829 Y139.518 E5.99026
G1 X136.693 Y139.597 E6.06918
G1 X137.513 Y139.837 E6.14682
G1 X138.270 Y140.228 E6.22425
G1 X138.939 Y140.754 E6.30168
G1 X139.497 Y141.398 E6.37912
G1 X139.922 Y142.135 E6.45655
G1 X140.201 Y142.940 E6.53398
G1 X140.322 Y143.783 E6.61142
G1 X140.282 Y144.633 E6.68885
G1 X140.081 Y145.461 E6.76628
G1 X139.727 Y146.236 E6.84372
G1 X139.233 Y146.929 E6.92115
G1 X138.617 Y147.517 E6.99858
G1 X137.900 Y147.977 E7.07602
G1 X137.110 Y148.294 E7.15345
G1 X136.274 Y148.455 E7.23088
G1 X135.422 Y148.455 E7.30832
G1 X134.586 Y148.294 E7.38575
G1 X133.851 Y148.000 E7.45773
G1 X134.083 Y147.419 F7800.000
G1 F1800
G1 X133.467 Y147.023 E7.52431
G1 X132.937 Y146.518 E7.59089
G1 X132.512 Y145.922 E7.65747
G1 X132.208 Y145.256 E7.72405
G1 X132.035 Y144.544 E7.79063
G1 X132.001 Y143.813 E7.85722
G1 X132.105 Y143.088 E7.92380
G1 X132.344 Y142.396 E7.99038
G1 X132.710 Y141.762 E8.05696
G1 X133.190 Y141.208 E8.12354
G1 X133.765 Y140.756 E8.19012
G1 X134.416 Y140.420 E8.25671
G1 X135.119 Y140.214 E8.32329
G1 X135.830 Y140.146 E8.38828
G1 X136.576 Y140.214 E8.45635
G1 X137.279 Y140.420 E8.52301
G1 X137.930 Y140.756 E8.58959
G1 X138.506 Y141.208 E8.65617
G1 X138.985 Y141.762 E8.72275
G1 X139.351 Y142.396 E8.78933
G1 X139.591 Y143.088 E8.85592
G1 X139.695 Y143.813 E8.92250
G1 X139.660 Y144.544 E8.98908
G1 X139.488 Y145.256 E9.05566
G1 X139.183 Y145.922 E9.12224
G1 X138.759 Y146.518 E9.18882
G1 X138.229 Y147.023 E9.25541
G1 X137.613 Y147.419 E9.32199
G1 X136.933 Y147.692 E9.38857
G1 X136.214 Y147.830 E9.45515
G1 X135.482 Y147.830 E9.52173
G1 X134.763 Y147.692 E9.58831
G1 X134.139 Y147.442 E9.64944
G1 X133.746 Y147.636 F7800.000
G1 E7.64944 F2400.00000
G92 E0
G1 X126.034 Y124.855 F7800.000
G1 E2.00000 F2400.00000
G1 F1800
G1 X125.031 Y125.033 E2.09265
G1 X124.051 Y125.017 E2.18177
G1 X123.126 Y124.831 E2.26757
G1 X122.230 Y124.467 E2.35555
G1 X121.409 Y123.932 E2.44468
G1 X120.725 Y123.281 E2.53048
G1 X120.162 Y122.499 E2.61812
G1 X119.755 Y121.625 E2.70576
G1 X119.517 Y120.691 E2.79341
G1 X119.458 Y119.729 E2.88105
G1 X119.578 Y118.773 E2.96869
G1 X119.875 Y117.855 E3.05634
G1 X120.337 Y117.009 E3.14398
G1 X120.948 Y116.264 E3.23162
G1 X121.741 Y115.601 E3.32563
G1 X123.776 Y114.684 E3.52857
G1 X125.708 Y113.961 E3.71623
G1 X127.684 Y113.364 E3.90389
G1 X129.695 Y112.898 E4.09155
G1 X131.732 Y112.564 E4.27933
G1 X133.835 Y112.361 E4.47144
G1 X135.848 Y112.295 E4.65453
G1 X137.911 Y112.362 E4.84219
G1 X139.964 Y112.564 E5.02985
G1 X142.002 Y112.898 E5.21762
G1 X144.060 Y113.379 E5.40973
G1 X145.987 Y113.961 E5.59282
G1 X147.920 Y114.684 E5.78048
G1 X149.955 Y115.601 E5.98342
G1 X150.748 Y116.264 E6.07743
G1 X151.361 Y117.012 E6.16541
G1 X151.827 Y117.875 E6.25453
G1 X152.117 Y118.773 E6.34033
G1 X152.238 Y119.729 E6.42798
G1 X152.178 Y120.691 E6.51562
G1 X151.941 Y121.625 E6.60326
G1 X151.533 Y122.499 E6.69091
G1 X150.971 Y123.281 E6.77855
G1 X150.272 Y123.945 E6.86619
G1 X149.462 Y124.468 E6.95384
G1 X148.569 Y124.831 E7.04148
G1 X147.625 Y125.021 E7.12912
G1 X146.661 Y125.032 E7.21676
G1 X145.661 Y124.855 E7.30908
G1 X144.036 Y124.117 E7.47141
G1 X142.604 Y123.586 E7.61026
G1 X141.140 Y123.158 E7.74897
G1 X139.607 Y122.829 E7.89154
G1 X138.134 Y122.619 E8.02678
G1 X136.613 Y122.510 E8.16549
G1 X135.045 Y122.513 E8.30806
G1 X133.561 Y122.619 E8.44329
G1 X132.050 Y122.835 E8.58214
G1 X130.557 Y123.158 E8.72098
G1 X129.092 Y123.586 E8.85982
G1 X127.660 Y124.117 E8.99866
G1 X126.089 Y124.830 E9.15555
G1 X125.848 Y124.253 F7800.000
G1 F1800
G1 X124.981 Y124.407 E9.23557
G1 X124.119 Y124.393 E9.31403
G1 X123.307 Y124.230 E9.38930
G1 X122.521 Y123.910 E9.46647
G1 X121.798 Y123.439 E9.54493
G1 X121.198 Y122.869 E9.62020
G1 X120.704 Y122.182 E9.69718
G1 X120.346 Y121.414 E9.77415
G1 X120.138 Y120.594 E9.85113
G1 X120.085 Y119.749 E9.92811
G1 X120.191 Y118.909 E10.00508
G1 X120.451 Y118.103 E10.08206
G1 X120.857 Y117.360 E10.15904
G1 X121.394 Y116.706 E10.23601
G1 X122.076 Y116.135 E10.31687
G1 X124.014 Y115.262 E10.51014
G1 X125.908 Y114.553 E10.69410
G1 X127.845 Y113.969 E10.87806
G1 X129.816 Y113.512 E11.06202
G1 X131.813 Y113.184 E11.24605
G1 X133.876 Y112.985 E11.43445
G1 X135.848 Y112.921 E11.61389
G1 X137.870 Y112.986 E11.79784
G1 X139.883 Y113.184 E11.98180
G1 X141.880 Y113.512 E12.16583
G1 X143.898 Y113.983 E12.35424
G1 X145.787 Y114.553 E12.53367
G1 X147.682 Y115.262 E12.71763
G1 X149.620 Y116.135 E12.91090
G1 X150.302 Y116.706 E12.99176
G1 X150.840 Y117.362 E13.06894
G1 X151.250 Y118.121 E13.14740
G1 X151.505 Y118.909 E13.22266
G1 X151.610 Y119.749 E13.29964
G1 X151.558 Y120.594 E13.37662
G1 X151.349 Y121.414 E13.45359
G1 X150.992 Y122.182 E13.53057
G1 X150.498 Y122.869 E13.60755
G1 X149.884 Y123.452 E13.68452
G1 X149.173 Y123.911 E13.76150
G1 X148.389 Y124.230 E13.83848
G1 X147.559 Y124.397 E13.91545
G1 X146.712 Y124.407 E13.99243
G1 X145.848 Y124.253 E14.07225
G1 X144.274 Y123.539 E14.22945
G1 X142.800 Y122.992 E14.37233
G1 X141.293 Y122.552 E14.51513
G1 X139.717 Y122.214 E14.66173
G1 X138.201 Y121.997 E14.80096
G1 X136.634 Y121.885 E14.94377
G1 X135.022 Y121.888 E15.09037
G1 X133.495 Y121.997 E15.22960
G1 X131.939 Y122.219 E15.37248
G1 X130.403 Y122.552 E15.51536
G1 X128.895 Y122.992 E15.65824
G1 X127.422 Y123.539 E15.80112
G1 X125.902 Y124.229 E15.95286
G1 X125.661 Y123.652 F7800.000
G1 F1800
G1 X124.931 Y123.781 E16.02026
G1 X124.186 Y123.769 E16.08806
G1 X123.488 Y123.629 E16.15279
G1 X122.812 Y123.354 E16.21917
G1 X122.187 Y122.947 E16.28696
G1 X121.671 Y122.456 E16.35169
G1 X121.245 Y121.864 E16.41800
G1 X120.937 Y121.203 E16.48431
G1 X120.758 Y120.497 E16.55062
G1 X120.713 Y119.769 E16.61693
G1 X120.804 Y119.045 E16.68324
G1 X121.028 Y118.351 E16.74955
G1 X121.377 Y117.711 E16.81586
G1 X121.840 Y117.147 E16.88217
G1 X122.411 Y116.670 E16.94987
G1 X124.252 Y115.840 E17.13347
G1 X126.108 Y115.145 E17.31373
G1 X128.006 Y114.573 E17.49399
G1 X129.937 Y114.125 E17.67425
G1 X131.894 Y113.804 E17.85453
G1 X133.916 Y113.609 E18.03924
G1 X135.848 Y113.546 E18.21501
G1 X137.829 Y113.610 E18.39527
G1 X139.802 Y113.804 E18.57553
G1 X141.759 Y114.125 E18.75581
G1 X143.737 Y114.587 E18.94052
G1 X145.587 Y115.145 E19.11629
G1 X147.444 Y115.840 E19.29655
G1 X149.285 Y116.670 E19.48015
G1 X149.856 Y117.147 E19.54786
